X: 29264
T: New Mown Meadows, The
R: reel
M: 4/4
K: Edorian
|:BEED E2FA|B2cA BAFA|BE~E2 FEDF|A2BA FEFA|
BEED E2FA|B2cA BAFA|d3B c3B|A2BA FEFA:|
|:e2ce fece|e2cA BAFA|e2ce fecB|AcBc AFE2|
e2ce fece|e2cA BAFA|d3B c3B|A2BA FEFA:|

